X:2666
T:Hovra-polskan (efter From-Olle)
O:england
R:Polska
Q:1/4=110
M:3/4
L:1/8
A:H\"alsingland
K:D
D>F Ad fa|G>G FD/F/ E2|D>F Ad fa|g>g fd/f/ e2|\
e>f gf ed|c>B Ac ea|d2 cB/c/ dd|BA/^G/ A4::
D>F Ad cd|B>A (G/F/)E/F/ G2|E>G Bd ce|d>B AG F2|\
D>F Ad fa|(b/a/)g/f/ e2 d2|\
(c/B/)A/G/ F2 E2|(F/E/)D/C/ D4::
D>E FG AB/c/|d>e (f/e/)f/g/ a2|\
ee/f/ gg/a/ gf| (e/f/)e/d/ (c/d/)c/B/ (A/B/)A/G/|
D(D/F/) Ad fa|(b/a/)g/f/ e2 d2|\
(c/B/)A/G/ F2 E2|(F/E/)D/C/ D4:|
